public/icon/svg/Apple.music.svg

<?xml version="1.0" encoding="UTF-8"?>
<svg width="1024px" height="1024px" viewBox="0 0 1024 1024" version="1.1" xmlns="http://www.w3.org/2000/svg" xmlns:xlink="http://www.w3.org/1999/xlink">
    <title>Apple.music</title>
    <g id="ICON-新版方图标" stroke="none" stroke-width="1" fill="none" fill-rule="evenodd">
        <g id="Apple.music" transform="translate(0, -0.0008)">
            <rect id="蒙版路径" fill="#FFFFFF" x="0" y="0" width="1024" height="1024"></rect>
            <path d="M0,1024.00081 L1024,1024.00081 L1024,0.00080758812 L0,0.00080758812 L0,1024.00081 Z M749.694273,431.517067 L749.694273,675.269131 C749.694273,693.064055 747.219612,710.560264 739.28363,726.733589 C726.910325,751.911061 706.857038,767.78567 680.062433,775.381585 C665.129135,779.648954 649.939836,782.081354 634.409206,782.764132 C593.875966,784.684447 558.76138,757.159923 551.508063,717.217358 C545.248266,681.775608 563.353281,646.501578 595.795961,630.931176 C609.577262,624.103387 624.382562,620.262756 639.230527,617.104904 C655.35849,613.605661 671.571786,610.57583 687.614416,606.86322 C699.305056,604.174778 707.113038,597.048274 709.374366,584.843601 C709.953418,582.136831 710.239509,579.37559 710.227697,576.60758 C710.227697,499.15485 710.227697,421.70212 710.142364,344.334737 C710.114545,341.666356 709.741673,339.012788 709.033034,336.440106 C707.326371,330.039054 702.633048,326.070401 696.062397,326.454464 C689.235745,326.881202 682.494428,327.948043 675.795776,329.270927 C643.369184,335.671979 610.942593,342.201053 578.516,348.730126 L479.316229,368.786756 L420.692364,380.650039 C420.009698,380.77806 419.327034,381.076776 418.644369,381.204797 C406.825729,384.49067 402.559073,389.867554 402.004407,402.1149 C401.919074,403.907195 402.004407,405.784836 402.004407,407.662479 C401.919074,518.699396 402.004407,629.736313 401.876407,740.730556 C401.876407,758.653502 399.871079,776.405753 392.703095,793.091162 C380.84179,820.402318 359.849838,837.47179 331.519236,845.70781 C316.585938,849.975179 301.225973,852.5356 285.652675,853.047684 C244.692769,854.583936 210.772847,827.443475 203.732864,787.159521 C197.759544,752.508493 213.546174,715.25437 252.970084,698.611633 C268.202049,692.210581 284.116679,688.711339 300.244641,685.382793 C312.489946,682.822372 324.777918,680.432646 336.937891,677.829551 C353.279186,674.287636 361.812501,664.045953 362.537832,647.360543 L362.537832,640.959491 C362.537832,514.645397 362.537832,388.245955 362.623165,261.931859 C362.623165,256.682997 363.17783,251.263439 364.415161,246.142598 C367.401821,233.980599 376.063134,227.024789 387.711107,224.037631 C398.591082,221.221168 409.684389,219.258178 420.735031,216.996474 C452.009626,210.595422 483.28422,204.365064 514.601482,198.049359 L611.454591,178.419467 C640.041193,172.701194 668.627793,166.897573 697.214394,161.221973 C706.601039,159.387005 716.073017,157.466689 725.502329,156.698563 C738.728965,155.631721 747.816944,163.953088 749.139607,177.267278 C749.480939,180.382457 749.651606,183.582983 749.651606,186.783508 C749.736939,268.290237 749.736939,349.882315 749.651606,431.389046 L749.694273,431.517067 Z" id="形状" fill="#FA243C" fill-rule="nonzero"></path>
        </g>
    </g>
</svg>

<svg xmlns="http://www.w3.org/2000/svg" width="1024" height="1024"><g fill="none" fill-rule="evenodd"><path fill="#FFF" d="M0 0h1024v1024H0z"/><path fill="#FA243C" fill-rule="nonzero" d="M0 1024h1024V0H0v1024m749.694-592.484v243.752c0 17.795-2.474 35.291-10.41 51.465-12.374 25.177-32.427 41.052-59.222 48.648-14.933 4.267-30.122 6.7-45.653 7.382-40.533 1.92-75.648-25.604-82.9-65.546-6.26-35.442 11.844-70.716 44.287-86.287 13.781-6.827 28.587-10.668 43.435-13.826 16.127-3.5 32.34-6.529 48.383-10.242 11.691-2.688 19.499-9.815 21.76-22.02.58-2.706.866-5.467.854-8.235 0-77.453 0-154.906-.086-232.273a30.943 30.943 0 0 0-1.109-7.895c-1.707-6.4-6.4-10.37-12.97-9.985-6.827.426-13.569 1.493-20.267 2.816-32.427 6.401-64.853 12.93-97.28 19.46l-99.2 20.056-58.624 11.863c-.682.128-1.365.427-2.048.555-11.818 3.286-16.085 8.663-16.64 20.91-.085 1.792 0 3.67 0 5.548-.085 111.037 0 222.074-.128 333.068 0 17.923-2.005 35.675-9.173 52.36-11.861 27.312-32.853 44.381-61.184 52.617-14.933 4.267-30.293 6.828-45.866 7.34-40.96 1.536-74.88-25.604-81.92-65.888-5.973-34.651 9.813-71.905 49.237-88.548 15.232-6.401 31.147-9.9 47.275-13.229 12.245-2.56 24.533-4.95 36.693-7.553 16.341-3.542 24.875-13.784 25.6-30.47v-6.4c0-126.314 0-252.714.085-379.028 0-5.249.555-10.668 1.792-15.79 2.987-12.161 11.648-19.117 23.296-22.104 10.88-2.817 21.973-4.78 33.024-7.041 31.275-6.401 62.55-12.632 93.866-18.947l96.854-19.63c28.586-5.719 57.173-11.522 85.76-17.198 9.386-1.835 18.858-3.755 28.287-4.523 13.227-1.067 22.315 7.254 23.638 20.568.34 3.116.512 6.316.512 9.517.085 81.506.085 163.099 0 244.605l.042.128"/></g></svg>
